src/categories-icons-sprite/categories/svg-cat-sport-fishing.svg

<svg width="23" height="38" viewBox="0 0 23 38" fill="none" xmlns="http://www.w3.org/2000/svg">
<path class="p-BABAC0" d="M16.2714 38.0001C13.8058 38.0001 11.8008 35.9952 11.8008 33.5295V29.2196L17.8891 32.2635L16.8892 33.4116L13.1994 31.5088V34.0636C13.1994 35.2958 14.4768 36.6164 16.2714 36.6164C18.6548 36.6164 19.3582 34.7618 19.3582 33.5295V27.9412H20.742V33.5295C20.742 35.9952 18.737 38.0001 16.2714 38.0001Z" fill="#A1D1FD"/>
<path class="p-BABAC0" d="M19.3584 3.32251H20.7421V21.2351H19.3584V3.32251Z" fill="#A1D1FD"/>
<path class="p-32393F" d="M15.0154 12.7183L12.8447 10.5211L14.4252 8.94067L16.5958 11.1381L15.0154 12.7183Z" fill="#4D98CB"/>
<path class="p-7C8388" d="M22.2024 0.790229L21.4122 0L0 21.4122L0.785861 22.198L0.789938 22.2027L1.58046 22.9926L22.9926 1.58046L22.2024 0.790229Z" fill="#5FBEFF"/>
<path class="p-575F64" d="M1.58073 22.9924L22.9929 1.58027L22.2027 0.790039L0.786133 22.1979L0.790209 22.2025L1.58073 22.9924Z" fill="#58ADE5"/>
<path class="p-FF9100" d="M20.0119 28.1022C18.3684 28.1022 17.0312 26.8129 17.0312 25.228V23.312C17.0312 21.7271 18.3684 20.438 20.0119 20.438C21.6555 20.438 22.9923 21.7271 22.9923 23.312V25.228C22.9923 26.8129 21.6555 28.1022 20.0119 28.1022Z" fill="#65B3E7"/>
</svg>

<svg width="23" height="38" fill="none" xmlns="http://www.w3.org/2000/svg"><path class="p-BABAC0" d="M16.271 38a4.475 4.475 0 01-4.47-4.47v-4.31l6.088 3.044-1 1.148-3.69-1.903v2.555c0 1.232 1.278 2.552 3.072 2.552 2.384 0 3.087-1.854 3.087-3.087v-5.588h1.384v5.588A4.475 4.475 0 0116.272 38zM19.358 3.323h1.384v17.912h-1.384V3.323z" fill="#A1D1FD"/><path class="p-32393F" d="M15.015 12.718l-2.17-2.197 1.58-1.58 2.17 2.197-1.58 1.58z" fill="#4D98CB"/><path class="p-7C8388" d="M22.202.79l-.79-.79L0 21.412l.786.786.004.005.79.79L22.993 1.58l-.79-.79z" fill="#5FBEFF"/><path class="p-575F64" d="M1.58 22.992L22.994 1.58l-.79-.79L.786 22.198l.004.005.79.79z" fill="#58ADE5"/><path class="p-FF9100" d="M20.012 28.102c-1.644 0-2.98-1.29-2.98-2.874v-1.916c0-1.585 1.336-2.874 2.98-2.874 1.643 0 2.98 1.29 2.98 2.874v1.916c0 1.585-1.337 2.874-2.98 2.874z" fill="#65B3E7"/></svg>
